clinic/img/icons/arrow_d.svg

<svg width="25" height="24" viewBox="0 0 25 24" fill="none" xmlns="http://www.w3.org/2000/svg">
<path d="M17.4596 10.2097C17.7135 9.95584 17.7135 9.54428 17.4596 9.29044C17.2058 9.0366 16.7942 9.0366 16.5404 9.29044L17.4596 10.2097ZM12.0404 13.7904C11.7865 14.0443 11.7865 14.4558 12.0404 14.7097C12.2942 14.9635 12.7058 14.9635 12.9596 14.7097L12.0404 13.7904ZM16.5404 9.29044L12.0404 13.7904L12.9596 14.7097L17.4596 10.2097L16.5404 9.29044Z" fill="white"/>
<path d="M7.54038 10.2097C7.28654 9.95584 7.28654 9.54428 7.54038 9.29044C7.79422 9.0366 8.20578 9.0366 8.45962 9.29044L7.54038 10.2097ZM12.9596 13.7904C13.2135 14.0443 13.2135 14.4558 12.9596 14.7097C12.7058 14.9635 12.2942 14.9635 12.0404 14.7097L12.9596 13.7904ZM8.45962 9.29044L12.9596 13.7904L12.0404 14.7097L7.54038 10.2097L8.45962 9.29044Z" fill="white"/>
</svg>

<svg width="25" height="24" fill="none" xmlns="http://www.w3.org/2000/svg"><path d="M17.46 10.21a.65.65 0 10-.92-.92l.92.92zm-5.42 3.58a.65.65 0 10.92.92l-.92-.92zm4.5-4.5l-4.5 4.5.92.92 4.5-4.5-.92-.92z" fill="#fff"/><path d="M7.54 10.21a.65.65 0 01.92-.92l-.92.92zm5.42 3.58a.65.65 0 11-.92.92l.92-.92zm-4.5-4.5l4.5 4.5-.92.92-4.5-4.5.92-.92z" fill="#fff"/></svg>
